packages/icons/svg/Fill/triangle-down.svg

<svg width="24" height="24" viewBox="0 0 24 24" fill="none" xmlns="http://www.w3.org/2000/svg">
<g id="Icon/Fill/triangle-down">
<path id="Mask" fill-rule="evenodd" clip-rule="evenodd" d="M12 17C11.494 17 11.01 16.767 10.674 16.358L6.46103 11.26C5.95703 10.649 5.85603 9.782 6.20203 9.049C6.50703 8.402 7.11403 8 7.78703 8H16.213C16.886 8 17.493 8.402 17.798 9.049C18.144 9.782 18.043 10.649 17.54 11.259L13.326 16.358C12.99 16.767 12.506 17 12 17Z" fill="#000000"/>
</g>
</svg>

<svg fill="none" height="24" viewBox="0 0 24 24" width="24" xmlns="http://www.w3.org/2000/svg"><path clip-rule="evenodd" d="m12 17c-.506 0-.99-.233-1.326-.642l-4.213-5.098c-.504-.611-.605-1.478-.259-2.211.305-.647.912-1.049 1.585-1.049h8.426c.673 0 1.28.402 1.585 1.049.346.733.245 1.6-.258 2.21l-4.214 5.099c-.336.409-.82.642-1.326.642" fill="#6b7280" fill-rule="evenodd"/></svg>
